box.svg

<svg xmlns="http://www.w3.org/2000/svg" width="2500" height="1379" viewBox="0 0 444.893 245.414"><g fill="#0075C9"><path d="M239.038 72.43c-33.081 0-61.806 18.6-76.322 45.904-14.516-27.305-43.24-45.902-76.32-45.902-19.443 0-37.385 6.424-51.821 17.266V16.925h-.008C34.365 7.547 26.713 0 17.286 0 7.858 0 .208 7.547.008 16.925H0v143.333h.036c.768 47.051 39.125 84.967 86.359 84.967 33.08 0 61.805-18.603 76.32-45.908 14.517 27.307 43.241 45.906 76.321 45.906 47.715 0 86.396-38.684 86.396-86.396.001-47.718-38.682-86.397-86.394-86.397zM86.395 210.648c-28.621 0-51.821-23.201-51.821-51.82 0-28.623 23.201-51.823 51.821-51.823 28.621 0 51.822 23.2 51.822 51.823 0 28.619-23.201 51.82-51.822 51.82zm152.643 0c-28.622 0-51.821-23.201-51.821-51.822 0-28.623 23.2-51.821 51.821-51.821 28.619 0 51.822 23.198 51.822 51.821-.001 28.621-23.203 51.822-51.822 51.822z"/><path d="M441.651 218.033l-44.246-59.143 44.246-59.144-.008-.007c5.473-7.62 3.887-18.249-3.652-23.913-7.537-5.658-18.187-4.221-23.98 3.157l-.004-.002-38.188 51.047-38.188-51.047-.006.009c-5.793-7.385-16.441-8.822-23.981-3.16-7.539 5.664-9.125 16.293-3.649 23.911l-.008.005 44.245 59.144-44.245 59.143.008.005c-5.477 7.62-3.89 18.247 3.649 23.909 7.54 5.664 18.188 4.225 23.981-3.155l.006.007 38.188-51.049 38.188 51.049.004-.002c5.794 7.377 16.443 8.814 23.98 3.154 7.539-5.662 9.125-16.291 3.652-23.91l.008-.008z"/></g></svg>

<?xml version="1.0" encoding="UTF-8" standalone="no"?>
<!DOCTYPE svg PUBLIC "-//W3C//DTD SVG 1.1//EN" "http://www.w3.org/Graphics/SVG/1.1/DTD/svg11.dtd">
<svg width="100%" height="100%" viewBox="0 0 1453 1379" version="1.1" xmlns="http://www.w3.org/2000/svg" xmlns:xlink="http://www.w3.org/1999/xlink" xml:space="preserve" xmlns:serif="http://www.serif.com/" style="fill-rule:evenodd;clip-rule:evenodd;stroke-linejoin:round;stroke-miterlimit:2;">
    <g transform="matrix(5.619076,0,0,5.619076,-498.943864,0)">
        <g transform="matrix(0.534484,0,0,0.534484,99.192312,42.520881)">
            <path d="M239.038,72.43C205.957,72.43 177.232,91.03 162.716,118.334C148.2,91.029 119.476,72.432 86.396,72.432C66.953,72.432 49.011,78.856 34.575,89.698L34.575,16.925L34.567,16.925C34.365,7.547 26.713,0 17.286,0C7.858,0 0.208,7.547 0.008,16.925L0,16.925L0,160.258L0.036,160.258C0.804,207.309 39.161,245.225 86.395,245.225C119.475,245.225 148.2,226.622 162.715,199.317C177.232,226.624 205.956,245.223 239.036,245.223C286.751,245.223 325.432,206.539 325.432,158.827C325.433,111.109 286.75,72.43 239.038,72.43ZM86.395,210.648C57.774,210.648 34.574,187.447 34.574,158.828C34.574,130.205 57.775,107.005 86.395,107.005C115.016,107.005 138.217,130.205 138.217,158.828C138.217,187.447 115.016,210.648 86.395,210.648ZM239.038,210.648C210.416,210.648 187.217,187.447 187.217,158.826C187.217,130.203 210.417,107.005 239.038,107.005C267.657,107.005 290.86,130.203 290.86,158.826C290.859,187.447 267.657,210.648 239.038,210.648Z" style="fill:rgb(0,117,201);fill-rule:nonzero;"/>
        </g>
        <g transform="matrix(0.534484,0,0,0.534484,99.192312,42.520881)">
            <path d="M441.651,218.033L397.405,158.89L441.651,99.746L441.643,99.739C447.116,92.119 445.53,81.49 437.991,75.826C430.454,70.168 419.804,71.605 414.011,78.983L414.007,78.981L375.819,130.028L337.631,78.981L337.625,78.99C331.832,71.605 321.184,70.168 313.644,75.83C306.105,81.494 304.519,92.123 309.995,99.741L309.987,99.746L354.232,158.89L309.987,218.033L309.995,218.038C304.518,225.658 306.105,236.285 313.644,241.947C321.184,247.611 331.832,246.172 337.625,238.792L337.631,238.799L375.819,187.75L414.007,238.799L414.011,238.797C419.805,246.174 430.454,247.611 437.991,241.951C445.53,236.289 447.116,225.66 441.643,218.041L441.651,218.033Z" style="fill:rgb(0,117,201);fill-rule:nonzero;"/>
        </g>
    </g>
</svg>
